src/assets/her1.svg

<svg width="371" height="371" viewBox="0 0 371 371" fill="none" xmlns="http://www.w3.org/2000/svg">
<path d="M316.513 54.3049L243.682 127.136C228.767 112.22 208.163 102.993 185.409 102.993V0C236.605 0 282.964 20.7473 316.513 54.3049Z" fill="url(#paint0_linear_0_1921)"/>
<path d="M127.136 127.135C112.22 142.051 102.993 162.655 102.993 185.409H0C0 134.212 20.7473 87.8538 54.3049 54.3047L127.136 127.135Z" fill="url(#paint1_linear_0_1921)"/>
<path d="M185.409 0V102.993C162.655 102.993 142.051 112.22 127.136 127.136L54.3049 54.3049C87.854 20.7473 134.213 0 185.409 0Z" fill="url(#paint2_linear_0_1921)"/>
<path d="M370.818 185.409H267.825C267.825 162.655 258.598 142.051 243.682 127.135L316.513 54.3047C350.071 87.8538 370.818 134.212 370.818 185.409Z" fill="url(#paint3_linear_0_1921)"/>
<path d="M370.818 185.409C370.818 236.606 350.071 282.964 316.513 316.513L243.682 243.683C258.598 228.767 267.825 208.163 267.825 185.409H370.818Z" fill="url(#paint4_linear_0_1921)"/>
<path d="M127.136 243.683L54.3049 316.513C20.7473 282.964 0 236.606 0 185.409H102.993C102.993 208.163 112.22 228.767 127.136 243.683Z" fill="url(#paint5_linear_0_1921)"/>
<path d="M316.513 316.513C282.964 350.071 236.605 370.818 185.409 370.818V267.825C208.163 267.825 228.767 258.598 243.682 243.683L316.513 316.513Z" fill="url(#paint6_linear_0_1921)"/>
<path d="M185.409 267.825V370.818C134.213 370.818 87.854 350.071 54.3049 316.513L127.136 243.683C142.051 258.598 162.655 267.825 185.409 267.825Z" fill="url(#paint7_linear_0_1921)"/>
<path d="M284.863 85.9539L243.682 127.135C228.767 112.219 208.163 102.992 185.409 102.992V44.7637C224.252 44.7637 259.404 60.5037 284.863 85.9539Z" fill="url(#paint8_linear_0_1921)"/>
<path d="M127.135 127.135C112.22 142.051 102.993 162.655 102.993 185.409H44.7642C44.7642 146.565 60.5034 111.414 85.9544 85.9541L127.135 127.135Z" fill="url(#paint9_linear_0_1921)"/>
<path d="M185.409 44.7646V102.993C162.655 102.993 142.051 112.22 127.136 127.136L85.9546 85.9549C111.414 60.5047 146.566 44.7646 185.409 44.7646Z" fill="url(#paint10_linear_0_1921)"/>
<path d="M326.054 185.409H267.825C267.825 162.655 258.598 142.051 243.682 127.135L284.863 85.9541C310.314 111.414 326.054 146.565 326.054 185.409Z" fill="url(#paint11_linear_0_1921)"/>
<path d="M326.054 185.409C326.054 224.252 310.314 259.404 284.863 284.864L243.682 243.683C258.598 228.767 267.825 208.163 267.825 185.409H326.054Z" fill="url(#paint12_linear_0_1921)"/>
<path d="M127.135 243.683L85.9544 284.864C60.5042 259.404 44.7642 224.252 44.7642 185.409H102.993C102.993 208.163 112.22 228.767 127.135 243.683Z" fill="url(#paint13_linear_0_1921)"/>
<path d="M284.863 284.864C259.404 310.314 224.252 326.054 185.409 326.054V267.825C208.163 267.825 228.767 258.598 243.682 243.683L284.863 284.864Z" fill="url(#paint14_linear_0_1921)"/>
<path d="M185.409 267.825V326.054C146.566 326.054 111.414 310.314 85.9546 284.864L127.136 243.683C142.051 258.598 162.655 267.825 185.409 267.825Z" fill="url(#paint15_linear_0_1921)"/>
<defs>
<linearGradient id="paint0_linear_0_1921" x1="165.339" y1="-6.97228" x2="287.917" y2="115.605" gradientUnits="userSpaceOnUse">
<stop stop-color="#FFF5D9"/>
<stop offset="1" stop-color="#FFCE47"/>
</linearGradient>
<linearGradient id="paint1_linear_0_1921" x1="23.6301" y1="116.334" x2="78.4967" y2="171.201" gradientUnits="userSpaceOnUse">
<stop stop-color="#6FA953"/>
<stop offset="1" stop-color="#43765A"/>
</linearGradient>
<linearGradient id="paint2_linear_0_1921" x1="113.11" y1="20.4052" x2="185.214" y2="92.5099" gradientUnits="userSpaceOnUse">
<stop stop-color="#E4E08E"/>
<stop offset="1" stop-color="#6FA953"/>
</linearGradient>
<linearGradient id="paint3_linear_0_1921" x1="244.615" y1="72.3026" x2="361.642" y2="189.331" gradientUnits="userSpaceOnUse">
<stop stop-color="#FFCE47"/>
<stop offset="1" stop-color="#FF9356"/>
</linearGradient>
<linearGradient id="paint4_linear_0_1921" x1="270.613" y1="177.908" x2="338.456" y2="245.752" gradientUnits="userSpaceOnUse">
<stop stop-color="#FF9356"/>
<stop offset="1" stop-color="#FF755C"/>
</linearGradient>
<linearGradient id="paint5_linear_0_1921" x1="13.8544" y1="186.167" x2="93.6851" y2="265.997" gradientUnits="userSpaceOnUse">
<stop stop-color="#7ACBFF"/>
<stop offset="1" stop-color="#45A2E0"/>
</linearGradient>
<linearGradient id="paint6_linear_0_1921" x1="185.278" y1="277.984" x2="252.25" y2="344.955" gradientUnits="userSpaceOnUse">
<stop stop-color="#FF755C"/>
<stop offset="1" stop-color="#FF4181"/>
</linearGradient>
<linearGradient id="paint7_linear_0_1921" x1="70.9597" y1="243.271" x2="232.903" y2="405.215" gradientUnits="userSpaceOnUse">
<stop stop-color="#FF4181"/>
<stop offset="1" stop-color="#843561"/>
</linearGradient>
<linearGradient id="paint8_linear_0_1921" x1="259.441" y1="118.779" x2="184" y2="43.3373" gradientUnits="userSpaceOnUse">
<stop stop-color="#FFF5D9"/>
<stop offset="1" stop-color="#FFCE47"/>
</linearGradient>
<linearGradient id="paint9_linear_0_1921" x1="110.384" y1="180.706" x2="16.8804" y2="87.2024" gradientUnits="userSpaceOnUse">
<stop stop-color="#6FA953"/>
<stop offset="1" stop-color="#43765A"/>
</linearGradient>
<linearGradient id="paint10_linear_0_1921" x1="175.779" y1="105.457" x2="92.5662" y2="22.2442" gradientUnits="userSpaceOnUse">
<stop stop-color="#E4E08E"/>
<stop offset="1" stop-color="#6FA953"/>
</linearGradient>
<linearGradient id="paint11_linear_0_1921" x1="325.167" y1="184.504" x2="237.321" y2="96.6584" gradientUnits="userSpaceOnUse">
<stop stop-color="#FFCE47"/>
<stop offset="1" stop-color="#FF9356"/>
</linearGradient>
<linearGradient id="paint12_linear_0_1921" x1="319.111" y1="248.789" x2="260.423" y2="190.101" gradientUnits="userSpaceOnUse">
<stop stop-color="#FF9356"/>
<stop offset="1" stop-color="#FF755C"/>
</linearGradient>
<linearGradient id="paint13_linear_0_1921" x1="133.442" y1="274.105" x2="25.0864" y2="165.749" gradientUnits="userSpaceOnUse">
<stop stop-color="#7ACBFF"/>
<stop offset="1" stop-color="#45A2E0"/>
</linearGradient>
<linearGradient id="paint14_linear_0_1921" x1="251.924" y1="322.246" x2="172.946" y2="243.269" gradientUnits="userSpaceOnUse">
<stop stop-color="#FF755C"/>
<stop offset="1" stop-color="#FF4181"/>
</linearGradient>
<linearGradient id="paint15_linear_0_1921" x1="187.191" y1="327.854" x2="90.8062" y2="231.469" gradientUnits="userSpaceOnUse">
<stop stop-color="#FF4181"/>
<stop offset="1" stop-color="#843561"/>
</linearGradient>
</defs>
</svg>

<svg width="371" height="371" fill="none" xmlns="http://www.w3.org/2000/svg"><path d="m316.513 54.305-72.831 72.831c-14.915-14.916-35.519-24.143-58.273-24.143V0c51.196 0 97.555 20.747 131.104 54.305z" fill="url(#a)"/><path d="M127.136 127.135c-14.916 14.916-24.143 35.52-24.143 58.274H0c0-51.197 20.747-97.555 54.305-131.104l72.831 72.83z" fill="url(#b)"/><path d="M185.409 0v102.993c-22.754 0-43.358 9.227-58.273 24.143L54.305 54.305C87.854 20.747 134.213 0 185.409 0z" fill="url(#c)"/><path d="M370.818 185.409H267.825c0-22.754-9.227-43.358-24.143-58.274l72.831-72.83c33.558 33.549 54.305 79.907 54.305 131.104z" fill="url(#d)"/><path d="M370.818 185.409c0 51.197-20.747 97.555-54.305 131.104l-72.831-72.83c14.916-14.916 24.143-35.52 24.143-58.274h102.993z" fill="url(#e)"/><path d="m127.136 243.683-72.831 72.83C20.747 282.964 0 236.606 0 185.409h102.993c0 22.754 9.227 43.358 24.143 58.274z" fill="url(#f)"/><path d="M316.513 316.513c-33.549 33.558-79.908 54.305-131.104 54.305V267.825c22.754 0 43.358-9.227 58.273-24.142l72.831 72.83z" fill="url(#g)"/><path d="M185.409 267.825v102.993c-51.196 0-97.555-20.747-131.104-54.305l72.831-72.83c14.915 14.915 35.519 24.142 58.273 24.142z" fill="url(#h)"/><path d="m284.863 85.954-41.181 41.181c-14.915-14.916-35.519-24.143-58.273-24.143V44.764c38.843 0 73.995 15.74 99.454 41.19z" fill="url(#i)"/><path d="M127.135 127.135c-14.915 14.916-24.142 35.52-24.142 58.274H44.764c0-38.844 15.74-73.995 41.19-99.455l41.181 41.181z" fill="url(#j)"/><path d="M185.409 44.765v58.228c-22.754 0-43.358 9.227-58.273 24.143L85.955 85.955c25.459-25.45 60.611-41.19 99.454-41.19z" fill="url(#k)"/><path d="M326.054 185.409h-58.229c0-22.754-9.227-43.358-24.143-58.274l41.181-41.18c25.451 25.459 41.191 60.61 41.191 99.454z" fill="url(#l)"/><path d="M326.054 185.409c0 38.843-15.74 73.995-41.191 99.455l-41.181-41.181c14.916-14.916 24.143-35.52 24.143-58.274h58.229z" fill="url(#m)"/><path d="m127.135 243.683-41.18 41.181c-25.45-25.46-41.19-60.612-41.19-99.455h58.228c0 22.754 9.227 43.358 24.142 58.274z" fill="url(#n)"/><path d="M284.863 284.864c-25.459 25.45-60.611 41.19-99.454 41.19v-58.229c22.754 0 43.358-9.227 58.273-24.142l41.181 41.181z" fill="url(#o)"/><path d="M185.409 267.825v58.229c-38.843 0-73.995-15.74-99.454-41.19l41.181-41.181c14.915 14.915 35.519 24.142 58.273 24.142z" fill="url(#p)"/><defs><linearGradient id="i" x1="259.441" y1="118.779" x2="184" y2="43.337" gradientUnits="userSpaceOnUse"><stop stop-color="#FFF5D9"/><stop offset="1" stop-color="#FFCE47"/></linearGradient><linearGradient id="a" x1="165.339" y1="-6.972" x2="287.917" y2="115.605" gradientUnits="userSpaceOnUse"><stop stop-color="#FFF5D9"/><stop offset="1" stop-color="#FFCE47"/></linearGradient><linearGradient id="c" x1="113.11" y1="20.405" x2="185.214" y2="92.51" gradientUnits="userSpaceOnUse"><stop stop-color="#E4E08E"/><stop offset="1" stop-color="#6FA953"/></linearGradient><linearGradient id="d" x1="244.615" y1="72.303" x2="361.642" y2="189.331" gradientUnits="userSpaceOnUse"><stop stop-color="#FFCE47"/><stop offset="1" stop-color="#FF9356"/></linearGradient><linearGradient id="e" x1="270.613" y1="177.908" x2="338.456" y2="245.752" gradientUnits="userSpaceOnUse"><stop stop-color="#FF9356"/><stop offset="1" stop-color="#FF755C"/></linearGradient><linearGradient id="f" x1="13.854" y1="186.167" x2="93.685" y2="265.997" gradientUnits="userSpaceOnUse"><stop stop-color="#7ACBFF"/><stop offset="1" stop-color="#45A2E0"/></linearGradient><linearGradient id="g" x1="185.278" y1="277.984" x2="252.25" y2="344.955" gradientUnits="userSpaceOnUse"><stop stop-color="#FF755C"/><stop offset="1" stop-color="#FF4181"/></linearGradient><linearGradient id="h" x1="70.96" y1="243.271" x2="232.903" y2="405.215" gradientUnits="userSpaceOnUse"><stop stop-color="#FF4181"/><stop offset="1" stop-color="#843561"/></linearGradient><linearGradient id="b" x1="23.63" y1="116.334" x2="78.497" y2="171.201" gradientUnits="userSpaceOnUse"><stop stop-color="#6FA953"/><stop offset="1" stop-color="#43765A"/></linearGradient><linearGradient id="j" x1="110.384" y1="180.706" x2="16.88" y2="87.202" gradientUnits="userSpaceOnUse"><stop stop-color="#6FA953"/><stop offset="1" stop-color="#43765A"/></linearGradient><linearGradient id="k" x1="175.779" y1="105.457" x2="92.566" y2="22.244" gradientUnits="userSpaceOnUse"><stop stop-color="#E4E08E"/><stop offset="1" stop-color="#6FA953"/></linearGradient><linearGradient id="l" x1="325.167" y1="184.504" x2="237.321" y2="96.658" gradientUnits="userSpaceOnUse"><stop stop-color="#FFCE47"/><stop offset="1" stop-color="#FF9356"/></linearGradient><linearGradient id="m" x1="319.111" y1="248.789" x2="260.423" y2="190.101" gradientUnits="userSpaceOnUse"><stop stop-color="#FF9356"/><stop offset="1" stop-color="#FF755C"/></linearGradient><linearGradient id="n" x1="133.442" y1="274.105" x2="25.086" y2="165.749" gradientUnits="userSpaceOnUse"><stop stop-color="#7ACBFF"/><stop offset="1" stop-color="#45A2E0"/></linearGradient><linearGradient id="o" x1="251.924" y1="322.246" x2="172.946" y2="243.269" gradientUnits="userSpaceOnUse"><stop stop-color="#FF755C"/><stop offset="1" stop-color="#FF4181"/></linearGradient><linearGradient id="p" x1="187.191" y1="327.854" x2="90.806" y2="231.469" gradientUnits="userSpaceOnUse"><stop stop-color="#FF4181"/><stop offset="1" stop-color="#843561"/></linearGradient></defs></svg>
